img/icon/show-more-white.svg

<svg width="20" height="20" viewBox="0 0 20 20" fill="none" xmlns="http://www.w3.org/2000/svg">
<path d="M15.489 9.5L13.989 8M13.989 8L12.489 9.5M13.989 8V12C13.989 13.1 13.089 14 11.989 14H9M4.5 10.5L6 12M6 12L7.5 10.5M6 12V8C6 6.895 6.895 6 8 6H11M1 15V5C1 2.791 2.791 1 5 1H15C17.209 1 19 2.791 19 5V15C19 17.209 17.209 19 15 19H5C2.791 19 1 17.209 1 15Z" stroke="white" stroke-width="1.5" stroke-linecap="round" stroke-linejoin="round"/>
</svg>

<svg width="20" height="20" fill="none" xmlns="http://www.w3.org/2000/svg"><path d="M15.489 9.5l-1.5-1.5m0 0l-1.5 1.5m1.5-1.5v4c0 1.1-.9 2-2 2H9m-4.5-3.5L6 12m0 0l1.5-1.5M6 12V8a2 2 0 0 1 2-2h3M1 15V5a4 4 0 0 1 4-4h10a4 4 0 0 1 4 4v10a4 4 0 0 1-4 4H5a4 4 0 0 1-4-4z" stroke="#fff" stroke-width="1.5" stroke-linecap="round" stroke-linejoin="round"/></svg>
